X: 52
T: No_145_A_Whirlwind_Is_Singing.krn
N: Derived from No_145_A_Whirlwind_Is_Singing.krn
%%abc-version 2.0
%%abcx-abcm2ps-target-version 5.9.1 (29 Sep 2008)
%%abc-creator hum2abc beta
%%abcx-conversion-date 2019/03/15 08:37:56
%%humdrum-veritas 3938684216
%%humdrum-veritas-data 2432055774
%%linebreak <none>
%%barnumbers 0
L: 1/8
M: 2/4
K: C clef=bass
E,2 [I:setbarnb 1]| 
B,3/A,/ B,A, ||  
[M:3/4]G,3/G,/ G,^F,F,2 ||  
[M:2/4]^F,3E, | 
E,2F,2 | 
A,3/F,/ (3A,^G,^F, ||  
[M:3/4]E,3/E,/ E,E,E,2 | 
E,6 ||  
[M:2/4]E,2E,3/E,/ | 
^F,3F, | 
^G,^F, F,3/F,/ ||  
[M:3/8]^F,E,E, ||  
[M:2/4](3^F,F,F,E,2 ||  
[M:3/4]E,6 ||  
[M:2/4]E,2E,E, | 
E,2E,2 ||  
[M:3/4]E,2E,2^C,2 | 
E,2E,2^C,2 ||  
[M:2/4](3E,E,E,E,2 | 
[M:3/4]E,4-E,2 :|]  



